picto/remote-bus-right-framed.svg

<svg class="color-immutable" width="30" height="30" viewBox="0 0 30 30" fill="none" xmlns="http://www.w3.org/2000/svg"><path d="M30 0H0V30H30V0Z" fill="#2D327D"/><path d="M25.5 3C26.325 3 27 3.675 27 4.5V25.5C27 26.325 26.325 27 25.5 27H4.5C3.675 27 3 26.325 3 25.5V4.5C3 3.675 3.675 3 4.5 3H25.5ZM25.5 2.625H4.5C3.46613 2.625 2.625 3.46613 2.625 4.5V25.5C2.625 26.5339 3.46613 27.375 4.5 27.375H25.5C26.5339 27.375 27.375 26.5339 27.375 25.5V4.5C27.375 3.46613 26.5339 2.625 25.5 2.625Z" fill="white"/><path d="M23.3936 18.5934C22.8344 15.0413 21.4632 8.88795 21.4632 8.88795C21.3454 8.3421 20.6665 7.75125 20.0138 7.75125H6V8.5974V8.64705H9.16897C9.37965 8.64705 9.55042 8.81783 9.55042 9.0285V13.2425C9.55042 13.4532 9.37965 13.624 9.16897 13.624H6V15.146H17.0686C17.2732 15.146 17.4391 15.3119 17.4391 15.5165C17.4391 15.7211 17.2732 15.8869 17.0686 15.8869H6V16.5671H17.0686C17.2732 16.5671 17.4391 16.7329 17.4391 16.9375C17.4391 17.1421 17.2732 17.3079 17.0686 17.3079H6V22.1848H8.9874C9.3738 22.1848 9.6297 22.0079 9.6297 21.5409C9.6297 19.8104 11.182 18.4116 12.8697 18.4116C14.697 18.4116 16.0396 19.8725 16.1096 21.5409C16.1096 21.9405 16.3208 22.1848 16.7584 22.1848H22.7516C23.1253 22.1848 23.4286 21.8815 23.4286 21.5078C23.4286 21.5078 23.4286 19.259 23.4286 19.0539C23.4286 18.8488 23.4053 18.6672 23.3936 18.5934ZM17.2537 13.6241H10.9087C10.6558 13.6241 10.4508 13.419 10.4508 13.1661V9.105C10.4508 8.8521 10.6558 8.64705 10.9087 8.64705H15.1125C15.4202 8.64705 15.5914 8.89163 15.7093 9.105L17.6137 12.9398C17.7787 13.349 17.5066 13.6241 17.2537 13.6241ZM21.7328 17.861L21.689 17.8704C21.3987 17.9323 21.1019 17.7972 20.9578 17.5376L16.8197 9.2664C16.798 9.2274 16.7823 9.18555 16.7731 9.14205C16.7212 8.8989 16.8872 8.6079 17.1196 8.6079L19.8636 8.61788C20.2606 8.61788 20.4776 8.84153 20.591 9.2517L22.2525 17.06C22.3302 17.4245 22.0974 17.7833 21.7328 17.861Z" fill="white"/><path d="M24.6315 12.9594L24.3578 10.9858L24.3536 10.9613C24.272 10.5683 24.1431 10.1275 23.8059 9.8376C23.5219 9.5934 23.1353 9.4845 22.5525 9.4845H22.1097L22.2496 10.2253H22.5525C23.0617 10.2253 23.2361 10.3246 23.323 10.3993C23.454 10.512 23.5476 10.7284 23.6258 11.1L23.8977 13.0611C23.9235 13.2465 24.0822 13.3807 24.2642 13.3807C24.2811 13.3807 24.2983 13.3795 24.3156 13.3771C24.5181 13.3491 24.6596 13.162 24.6315 12.9594Z" fill="white"/><path d="M12.8696 24C11.5746 24 10.5211 22.9464 10.5211 21.6514C10.5211 20.3565 11.5746 19.303 12.8696 19.303C14.1646 19.303 15.2182 20.3566 15.2182 21.6514C15.2183 22.9464 14.1647 24 12.8696 24ZM12.8696 20.3927C12.1995 20.3927 11.6543 20.9379 11.6543 21.6081C11.6543 22.2784 12.1995 22.8236 12.8696 22.8236C13.5399 22.8236 14.0853 22.2784 14.0853 21.6081C14.0852 20.9379 13.5399 20.3927 12.8696 20.3927Z" fill="white"/></svg>

<svg class="color-immutable" width="30" height="30" viewBox="0 0 30 30" fill="none" xmlns="http://www.w3.org/2000/svg"><g clip-path="url(#a)"><path d="M30 0H0v30h30V0Z" fill="#2D327D"/><path d="M25.5 3c.825 0 1.5.675 1.5 1.5v21c0 .825-.675 1.5-1.5 1.5h-21c-.825 0-1.5-.675-1.5-1.5v-21C3 3.675 3.675 3 4.5 3h21Zm0-.375h-21A1.877 1.877 0 0 0 2.625 4.5v21c0 1.034.841 1.875 1.875 1.875h21a1.877 1.877 0 0 0 1.875-1.875v-21A1.877 1.877 0 0 0 25.5 2.625Z" fill="#fff"/><path d="M23.394 18.593c-.56-3.552-1.93-9.705-1.93-9.705-.119-.546-.797-1.137-1.45-1.137H6v.896h3.169c.21 0 .381.17.381.381v4.214c0 .211-.17.382-.381.382H6v1.522h11.069a.37.37 0 0 1 0 .74H6v.681h11.069a.37.37 0 1 1 0 .74H6v4.878h2.987c.387 0 .643-.177.643-.644 0-1.73 1.552-3.13 3.24-3.13 1.827 0 3.17 1.461 3.24 3.13 0 .4.21.644.648.644h5.994a.677.677 0 0 0 .677-.677v-2.454c0-.205-.024-.387-.035-.46Zm-6.14-4.969h-6.345a.458.458 0 0 1-.458-.458V9.105c0-.253.205-.458.458-.458h4.204c.307 0 .478.245.596.458l1.905 3.835c.165.409-.107.684-.36.684Zm4.479 4.237-.044.01a.675.675 0 0 1-.731-.333L16.82 9.266a.445.445 0 0 1-.047-.124c-.052-.243.114-.534.347-.534l2.744.01c.397 0 .614.224.727.634l1.662 7.808a.675.675 0 0 1-.52.801ZM24.631 12.96l-.273-1.974-.004-.025c-.082-.393-.21-.834-.548-1.123-.284-.245-.67-.353-1.254-.353h-.442l.14.74h.302c.51 0 .684.1.771.174.131.113.225.33.303.701l.272 1.961a.37.37 0 0 0 .733-.102Z" fill="#fff"/><path d="M12.87 24a2.351 2.351 0 0 1-2.349-2.349 2.351 2.351 0 0 1 2.349-2.348 2.351 2.351 0 0 1 2.348 2.348A2.351 2.351 0 0 1 12.87 24Zm0-3.607c-.67 0-1.216.545-1.216 1.215a1.217 1.217 0 0 0 2.431 0c0-.67-.545-1.215-1.215-1.215Z" fill="#fff"/></g><defs><clipPath id="a"><path fill="#fff" d="M0 0h30v30H0z"/></clipPath></defs></svg>
